svg/regular/bx-dizzy.svg

<svg xmlns="http://www.w3.org/2000/svg" width="24" height="24"><path d="M12 2C6.486 2 2 6.486 2 12s4.486 10 10 10 10-4.486 10-10S17.514 2 12 2zm0 18c-4.411 0-8-3.589-8-8s3.589-8 8-8 8 3.589 8 8-3.589 8-8 8z"/><path d="M10.707 12.293 9.414 11l1.293-1.293-1.414-1.414L8 9.586 6.707 8.293 5.293 9.707 6.586 11l-1.293 1.293 1.414 1.414L8 12.414l1.293 1.293zm6.586-4L16 9.586l-1.293-1.293-1.414 1.414L14.586 11l-1.293 1.293 1.414 1.414L16 12.414l1.293 1.293 1.414-1.414L17.414 11l1.293-1.293zM10 16h4v2h-4z"/></svg>

<svg xmlns="http://www.w3.org/2000/svg" width="24" height="24" viewBox="0 0 24 24"><path d="M12,2C6.486,2,2,6.486,2,12c0,5.514,4.486,10,10,10s10-4.486,10-10C22,6.486,17.514,2,12,2z M12,20c-4.411,0-8-3.589-8-8 s3.589-8,8-8s8,3.589,8,8S16.411,20,12,20z"/><path d="M10.707 12.293L9.414 11 10.707 9.707 9.293 8.293 8 9.586 6.707 8.293 5.293 9.707 6.586 11 5.293 12.293 6.707 13.707 8 12.414 9.293 13.707zM17.293 8.293L16 9.586 14.707 8.293 13.293 9.707 14.586 11 13.293 12.293 14.707 13.707 16 12.414 17.293 13.707 18.707 12.293 17.414 11 18.707 9.707zM10 16H14V18H10z"/></svg>
